X:159
T:Miss Blair's Reel. Ru2.159
%%VWML:RutherfordVol2-2249-p80-0
F:http://www.vwml.org/record/RutherfordVol2/2249/p80
Z:vmp.Steve Mansfield 2015 www.village-music-project.org.uk
M:C|
L:1/8
R:Reel
W:The first Cu. Gallop down one Cu. up again &
W:cast off .| Gallop down another Cu. up again &
W:cast off :| Hands round all Six .|. Lead up to
W:the Top Foot it & Cast off :|
Q:1/2=60
K:D
|:(fef)!wedge!d eBdA | (fef)!wedge!d B/B/B B2 | T(fef)!wedge!d eBdA | (B/A/B/c/ !wedge!d)F D/D/D D2 :|
|: (D/E/F/G/ A)!wedge!F BGAF | (D/E/F/G/ A)F E/E/E E2 | (D/E/F/G/ A)F dF AF | GBAF D/D/D D2 :|
T:Auld Criple Dow. Ru2.160, The
B:RUTHERFORD Complete Collection of 200 Country Dances Vol.2; 1759.
Z:vmp.Steve Mansfield 2015 www.village-music-project.org.uk
M:C|
L:1/8
W:The first Cu. cast off two Cu. .| Lead up to the
W:Top foot it & Cast off :| Hands round four
W:with the 3d Cu. .|. Right & Left at Top :|
Q:1/2=60
N:NB f2 in Mss
K:F
|:c | (d>ef>a) gfec | defc f3c | (d>ef>a) gfec | A/A/A Ac{e}"NB"f3 :|
|: c | AFFA BGGc | AFFA defc | AFFA BGGc | AGAc {e}"NB"f3 :|
